X:4
T:"Bourre Parisienne"
Z:abc transcription Simon Wascher
N:please mail errors to: simon.wascher@chello.at
M:2/4
L:1/16
K:Dm
G3A BAG2|c3B AG^F2|d3c B2A2|D2B2A4|
G3A BAG2|c3B AG^F2|d3c B2A2|D2^F2G4:|
K:D
|:A2Bc d2c2|A2B2F4|D2EF G2A2|B2c2 B2A2|
A2Bc d2c2|A2B2F4|D2EF G2A2|B2c2d4:|
